X: 33317
T: Quarff Lasses, The
R: strathspey
M: 4/4
K: Adorian
B|(3cdc B>c A2a2|a>ge<f g3c|B2G2 G>AB<G|c>AB<G E3B|
(3cdc B>c A2a2|a>ge<f g3c|B2G2 G>AB<G|c>AB<G A3:|
A|A>e (3ede d>cB<G|A>Bc<d e4|A>e (3ede d>cB<G|A>GE<G A3A|
A>e (3ede d>cB<G|A>Bc<d e3g|a>g (3ege f>de>c|A>GE<G A3||
B|(3cdc B>c A2a2|a>ge<f g3c|B2G2 G>AB<G|c>AB<G E3B|
(3cdc B>c A2a2|a>ge<f g3c|B2G2 G>AB<G|c>AB<G A3||

